X: 139
T: A Cork
R: reel
M: 4/4
K: Gmajor
GEDB cABA|GABG AGEF|GEDB cABA|GABG A2GA|
GEDB cABA|GABG AGEF|GEDB cABA|GABG A2 G2||
gfgd ecdB|GABG AGEf|gfgd ecdB|GABG A2 Gf|
gfgd ecdB|GABG AGEF|GBAc Bdge|GABG A2 Gd||
cccA BBBA|GABG AGEF|~c3A ~B3A|GABGA2 GB|
cccA BBBA|GABG AGEF|GEDB cABA|GABG A2 GB||

